Yaru++/animations/24/brasero-disc-95.svg

<svg height="24" width="24" xmlns="http://www.w3.org/2000/svg">
  <g fill="#fff">
    <path d="m12 1c-1.233375 0-2.416177.2266195-3.523437.6015625l2.105468 6.53125c.445713-.1649629.915132-.2578125 1.417969-.2578125zm-3.910156.7304687c-.3996707.1520386-.784315.3198795-1.1601565.5156251.3768388-.1994845.7690737-.3651929 1.1601565-.5156251zm-2.7070315 1.5039063c-.2690351.2035407-.5244854.4176443-.7734375.6445312.2445564-.2220587.5095947-.4449687.7734375-.6445312zm-4.296875 7.433594c-.0532829.438681-.0859375.879044-.0859375 1.332031 0-.453362.032555-.89295.085937-1.332031z" fill-rule="evenodd" opacity=".5"/>
    <path d="m12 1v6.875c2.277 0 4.125 1.848 4.125 4.125s-1.848 4.125-4.125 4.125-4.125-1.848-4.125-4.125c.0000003-1.357829.662381-2.5567754 1.675781-3.3085938.327138-.241593.667645-.4273981 1.03125-.5585937l-2.105468-6.5742188c-1.053824.3560425-2.0656264.8940333-3.007813 1.5898438-2.710058 2.0041519-4.4687499 5.2246631-4.46875 8.8515625 0 6.072 4.9280003 11 11 11 6.072 0 11-4.928 11-11 0-6.0719999-4.928-11-11-11z"/>
  </g>
</svg>

<!-- Created with Inkscape (http://www.inkscape.org/) -->
<svg width="24" height="24" version="1.0" xmlns="http://www.w3.org/2000/svg" xmlns:xlink="http://www.w3.org/1999/xlink">
 <path d="M 12,1 C 10.766625,1 9.583823,1.2266195 8.476563,1.6015625 l 2.105468,6.53125 C 11.027744,7.9678496 11.497163,7.875 12,7.875 Z M 8.089844,1.7304687 C 7.6901733,1.8825073 7.305529,2.0503482 6.9296875,2.2460938 7.3065263,2.0466093 7.6987612,1.8809009 8.089844,1.7304687 Z M 5.3828125,3.234375 C 5.1137774,3.4379157 4.8583271,3.6520193 4.609375,3.8789062 4.8539314,3.6568475 5.1189697,3.4339375 5.3828125,3.234375 Z m -4.296875,7.433594 C 1.0326546,11.10665 1,11.547013 1,12 c 0,-0.453362 0.032555,-0.89295 0.085937,-1.332031 z" style="fill-rule:evenodd;fill:#ffffff;opacity:.5"/>
 <path d="m12 1v6.875c2.277 0 4.125 1.848 4.125 4.125s-1.848 4.125-4.125 4.125-4.125-1.848-4.125-4.125c3e-7 -1.357829 0.662381-2.5567754 1.675781-3.3085938 0.327138-0.241593 0.667645-0.4273981 1.03125-0.5585937l-2.105468-6.5742188c-1.053824 0.3560425-2.0656264 0.8940333-3.007813 1.5898438-2.710058 2.0041519-4.4687499 5.2246631-4.46875 8.8515625 0 6.072 4.9280003 11 11 11 6.072 0 11-4.928 11-11 0-6.0719999-4.928-11-11-11z" style="fill:#ffffff"/>
</svg>
